svgs/thin/building-un.svg

<svg xmlns="http://www.w3.org/2000/svg" viewBox="0 0 384 512"><!--! Font Awesome Pro 6.4.2 by @fontawesome - https://fontawesome.com License - https://fontawesome.com/license (Commercial License) Copyright 2023 Fonticons, Inc. --><path d="M48 16C30.3 16 16 30.3 16 48V464c0 17.7 14.3 32 32 32h96V416c0-26.5 21.5-48 48-48s48 21.5 48 48v80h96c17.7 0 32-14.3 32-32V48c0-17.7-14.3-32-32-32H48zM224 496V416c0-17.7-14.3-32-32-32s-32 14.3-32 32v80h64zm-80 16H48c-26.5 0-48-21.5-48-48V48C0 21.5 21.5 0 48 0H336c26.5 0 48 21.5 48 48V464c0 26.5-21.5 48-48 48H240 224 160 144zM104 232h32c13.3 0 24 10.7 24 24v32c0 13.3-10.7 24-24 24H104c-13.3 0-24-10.7-24-24V256c0-13.3 10.7-24 24-24zm-8 24v32c0 4.4 3.6 8 8 8h32c4.4 0 8-3.6 8-8V256c0-4.4-3.6-8-8-8H104c-4.4 0-8 3.6-8 8zm128 0c0-13.3 10.7-24 24-24h32c13.3 0 24 10.7 24 24v32c0 13.3-10.7 24-24 24H248c-13.3 0-24-10.7-24-24V256zm24-8c-4.4 0-8 3.6-8 8v32c0 4.4 3.6 8 8 8h32c4.4 0 8-3.6 8-8V256c0-4.4-3.6-8-8-8H248zM230.7 59.6l49.3 74V64c0-4.4 3.6-8 8-8s8 3.6 8 8v96c0 3.5-2.3 6.6-5.7 7.7s-7-.3-9-3.2L232 90.4V160c0 4.4-3.6 8-8 8s-8-3.6-8-8V64c0-3.5 2.3-6.6 5.7-7.7s7 .3 9 3.2zM104 64v64c0 13.3 10.7 24 24 24s24-10.7 24-24V64c0-4.4 3.6-8 8-8s8 3.6 8 8v64c0 22.1-17.9 40-40 40s-40-17.9-40-40V64c0-4.4 3.6-8 8-8s8 3.6 8 8z"/></svg>

<svg xmlns="http://www.w3.org/2000/svg" viewBox="0 0 384 512"><!--! Font Awesome Pro 6.1.1 by @fontawesome - https://fontawesome.com License - https://fontawesome.com/license (Commercial License) Copyright 2022 Fonticons, Inc. --><path d="M136 232C149.3 232 160 242.7 160 256V288C160 301.3 149.3 312 136 312H104C90.75 312 80 301.3 80 288V256C80 242.7 90.75 232 104 232H136zM96 288C96 292.4 99.58 296 104 296H136C140.4 296 144 292.4 144 288V256C144 251.6 140.4 248 136 248H104C99.58 248 96 251.6 96 256V288zM224 256C224 242.7 234.7 232 248 232H280C293.3 232 304 242.7 304 256V288C304 301.3 293.3 312 280 312H248C234.7 312 224 301.3 224 288V256zM248 248C243.6 248 240 251.6 240 256V288C240 292.4 243.6 296 248 296H280C284.4 296 288 292.4 288 288V256C288 251.6 284.4 248 280 248H248zM280 133.6V64C280 59.58 283.6 56 288 56C292.4 56 296 59.58 296 64V160C296 163.5 293.7 166.6 290.3 167.7C286.9 168.7 283.3 167.4 281.3 164.4L232 90.42V160C232 164.4 228.4 168 224 168C219.6 168 216 164.4 216 160V64C216 60.47 218.3 57.36 221.7 56.34C225.1 55.32 228.7 56.63 230.7 59.56L280 133.6zM104 128C104 141.3 114.7 152 128 152C141.3 152 152 141.3 152 128V64C152 59.58 155.6 56 160 56C164.4 56 168 59.58 168 64V128C168 150.1 150.1 168 128 168C105.9 168 88 150.1 88 128V64C88 59.58 91.58 56 96 56C100.4 56 104 59.58 104 64V128zM48 512C21.49 512 0 490.5 0 464V48C0 21.49 21.49 0 48 0H336C362.5 0 384 21.49 384 48V464C384 490.5 362.5 512 336 512H48zM16 48V464C16 481.7 30.33 496 48 496H144V416C144 389.5 165.5 368 192 368C218.5 368 240 389.5 240 416V496H336C353.7 496 368 481.7 368 464V48C368 30.33 353.7 16 336 16H48C30.33 16 16 30.33 16 48zM224 496V416C224 398.3 209.7 384 192 384C174.3 384 160 398.3 160 416V496H224z"/></svg>
